; generated by PrusaSlicer 2.2.0+win64 on 2020-03-29 at 18:28:12 UTC

; 

; external perimeters extrusion width = 0.45mm
; perimeters extrusion width = 0.45mm
; infill extrusion width = 0.45mm
; solid infill extrusion width = 0.45mm
; top infill extrusion width = 0.40mm
; support material extrusion width = 0.35mm
; first layer extrusion width = 0.42mm

M73 P0 R114
M73 Q0 S114
M201 X1000 Y1000 Z1000 E5000 ; sets maximum accelerations, mm/sec^2
M203 X200 Y200 Z12 E120 ; sets maximum feedrates, mm/sec
M204 P1250 R1250 T1250 ; sets acceleration (P, T) and retract acceleration (R), mm/sec^2
M205 X8.00 Y8.00 Z0.40 E4.50 ; sets the jerk limits, mm/sec
M205 S0 T0 ; sets the minimum extruding and travel feed rate, mm/sec
M107
M862.3 P "MK3S" ; printer model check
M862.1 P0.4 ; nozzle diameter check
M115 U3.8.1 ; tell printer latest fw version
G90 ; use absolute coordinates
M83 ; extruder relative mode
M104 S245 ; set extruder temp
M140 S95 ; set bed temp
M190 S95 ; wait for bed temp
M109 S245 ; wait for extruder temp
G28 W ; home all without mesh bed level
G80 ; mesh bed leveling
G1 Y-3.0 F1000.0 ; go outside print area
G92 E0.0
G1 X60.0 E9.0 F1000.0 ; intro line
M73 Q0 S114
M73 P0 R114
G1 X100.0 E12.5 F1000.0 ; intro line
G92 E0.0
M221 S95
G21 ; set units to millimeters
G90 ; use absolute coordinates
M83 ; use relative distances for extrusion
M900 K45 ; Filament gcode
;BEFORE_LAYER_CHANGE
G92 E0.0
;0.2


G1 E-1.40000 F2100.00000
G1 Z0.200 F10800.000
;AFTER_LAYER_CHANGE
;0.2
G1 Z0.400
G1 X66.105 Y55.119
G1 Z0.200
G1 E1.40000 F2100.00000
M204 S1000
G1 F1200.000
G1 X68.418 Y52.422 E0.11137
G1 X70.836 Y49.788 E0.11212
G1 X73.323 Y47.257 E0.11127
G1 X77.257 Y43.599 E0.16841
G1 X81.415 Y40.159 E0.16920
G1 X85.791 Y36.979 E0.16961
G1 X90.366 Y34.107 E0.16937
G1 X95.163 Y31.559 E0.17031
G1 X100.141 Y29.382 E0.17034
G1 X105.283 Y27.607 E0.17057
G1 X110.558 Y26.243 E0.17083
G1 X115.905 Y25.297 E0.17026
G1 X121.300 Y24.751 E0.17002
G1 X126.700 Y24.581 E0.16942
G1 X132.064 Y24.751 E0.16824
G1 X135.691 Y25.073 E0.11419
G1 X141.025 Y25.877 E0.16912
G1 X144.581 Y26.648 E0.11411
G1 X148.102 Y27.607 E0.11441
G1 X151.582 Y28.757 E0.11491
G1 X154.962 Y30.080 E0.11382
G1 X159.878 Y32.386 E0.17025
G1 X163.051 Y34.124 E0.11342
G1 X167.608 Y36.986 E0.16874
G1 X170.567 Y39.089 E0.11382
G1 X174.782 Y42.436 E0.16876
G1 X178.763 Y46.000 E0.16755
G1 X182.553 Y49.787 E0.16797
G1 X186.135 Y53.756 E0.16763
G1 X189.518 Y57.908 E0.16794
G1 X192.679 Y62.214 E0.16746
G1 X195.620 Y66.699 E0.16816
G1 X198.308 Y71.340 E0.16817
G1 X200.721 Y76.124 E0.16801
G1 X202.848 Y81.053 E0.16832
G1 X204.117 Y84.455 E0.11385
G1 X205.734 Y89.557 E0.16782
G1 X207.051 Y94.757 E0.16817
G1 X207.930 Y99.291 E0.14482
G1 X208.559 Y103.878 E0.14516
G1 X208.911 Y108.501 E0.14537
G1 X208.903 Y113.214 E0.14778
G1 X208.643 Y116.343 E0.09843
G1 X208.419 Y117.940 E0.05056
G1 X207.747 Y121.141 E0.10257
G1 X206.736 Y124.318 E0.10452
G1 X205.392 Y127.367 E0.10448
G1 X203.746 Y130.210 E0.10300
G1 X201.797 Y132.888 E0.10387
G1 X199.638 Y135.328 E0.10216
G1 X198.492 Y136.465 E0.05060
G1 X196.134 Y138.548 E0.09866
G1 X193.550 Y140.502 E0.10158
G1 X188.981 Y143.402 E0.16969
G1 X187.883 Y143.942 E0.03833
G1 X186.677 Y144.383 E0.04028
G1 X185.416 Y144.708 E0.04084
G1 X184.154 Y144.912 E0.04006
G1 X135.572 Y150.026 E1.53170
G1 X117.980 Y150.033 E0.55157
G1 X69.226 Y144.912 E1.53705
G1 X67.980 Y144.710 E0.03958
G1 X66.763 Y144.399 E0.03940
G1 X64.878 Y143.652 E0.06355
G1 X63.835 Y143.065 E0.03755
G1 X59.855 Y140.513 E0.14821
G1 X57.270 Y138.561 E0.10158
G1 X56.011 Y137.489 E0.05186
G1 X53.751 Y135.328 E0.09803
G1 X51.544 Y132.828 E0.10456
G1 X50.556 Y131.535 E0.05102
G1 X49.199 Y129.509 E0.07648
G1 X48.356 Y128.051 E0.05280
G1 X47.280 Y125.853 E0.07674
G1 X46.093 Y122.700 E0.10564
G1 X45.636 Y121.116 E0.05169
G1 X44.973 Y117.952 E0.10137
G1 X44.746 Y116.343 E0.05095
G1 X44.487 Y113.218 E0.09832
G1 X44.479 Y108.475 E0.14870
G1 X44.681 Y105.397 E0.09673
G1 X45.013 Y102.334 E0.09657
G1 X45.460 Y99.289 E0.09651
G1 X46.018 Y96.267 E0.09636
G1 X46.742 Y93.022 E0.10424
G1 X47.650 Y89.577 E0.11172
G1 X49.282 Y84.430 E0.16930
G1 X50.533 Y81.076 E0.11224
G1 X51.909 Y77.792 E0.11165
G1 X54.245 Y72.919 E0.16941
G1 X56.857 Y68.208 E0.16890
G1 X58.725 Y65.183 E0.11145
G1 X60.709 Y62.216 E0.11193
G1 X63.890 Y57.883 E0.16853
G1 X66.068 Y55.165 E0.10919
G1 F8640.000
G1 X68.418 Y52.422 E-0.83404
G1 X69.870 Y50.840 E-0.49596
G1 E-0.07000 F2100.00000
G1 Z0.400 F10800.000
G1 X135.745 Y139.440
G1 Z0.200
G1 E1.40000 F2100.00000
G1 F1200.000
G1 X135.745 Y137.403 E0.06387
G1 X134.991 Y137.403 E0.02365
G1 X134.991 Y139.664 E0.07088
G1 X134.237 Y140.038 E0.02639
G1 X134.237 Y137.403 E0.08260
G1 X133.483 Y137.403 E0.02365
G1 X133.483 Y140.359 E0.09269
G1 X133.109 Y140.516 E0.01270
G1 X132.729 Y140.648 E0.01263
G1 X132.729 Y137.403 E0.10173
G1 X131.975 Y137.403 E0.02365
G1 X131.975 Y140.905 E0.10979
G1 X131.220 Y141.113 E0.02453
G1 X131.220 Y137.403 E0.11632
G1 X130.466 Y137.403 E0.02365
G1 X130.466 Y141.290 E0.12188
G1 X129.712 Y141.441 E0.02412
G1 X129.712 Y137.403 E0.12661
G1 X128.958 Y137.403 E0.02365
G1 X128.958 Y141.550 E0.13001
G1 X128.204 Y141.627 E0.02377
G1 X128.204 Y137.403 E0.13244
G1 X127.450 Y137.403 E0.02365
G1 X127.450 Y141.681 E0.13412
G1 X126.695 Y141.693 E0.02365
G1 X126.695 Y137.403 E0.13449
G1 X125.941 Y137.403 E0.02365
G1 X125.941 Y141.675 E0.13393
G1 X125.187 Y141.633 E0.02368
G1 X125.187 Y137.403 E0.13264
G1 X124.433 Y137.403 E0.02365
G1 X124.433 Y141.549 E0.13000
G1 X124.138 Y141.516 E0.00931
G1 X123.679 Y141.435 E0.01461
G1 X123.679 Y137.403 E0.12643
G1 X122.925 Y137.403 E0.02365
G1 X122.925 Y141.297 E0.12207
G1 X122.170 Y141.114 E0.02433
G1 X122.170 Y137.403 E0.11634
G1 X121.416 Y137.403 E0.02365
G1 X121.416 Y140.897 E0.10955
G1 X120.662 Y140.652 E0.02487
G1 X120.662 Y137.403 E0.10185
G1 X119.908 Y137.403 E0.02365
G1 X119.908 Y140.363 E0.09282
G1 X119.154 Y140.031 E0.02585
G1 X119.154 Y137.403 E0.08238
G1 X118.400 Y137.403 E0.02365
G1 X118.400 Y139.661 E0.07080
G1 X117.646 Y139.252 E0.02691
G1 X117.646 Y137.233 E0.06328
G1 F8640.000
G1 X117.646 Y139.252 E-0.46605
G1 X118.400 Y139.661 E-0.19815
G1 X118.400 Y137.403 E-0.52142
G1 X119.025 Y137.403 E-0.14438
G1 E-0.07000 F2100.00000
G1 Z0.400 F10800.000
G1 X115.956 Y139.606
G1 Z0.200
G1 E1.40000 F2100.00000
G1 F1200.000
G1 X115.084 Y138.985 E0.03357
G1 X114.140 Y138.218 E0.03815
G1 X113.246 Y137.392 E0.03815
G1 X112.407 Y136.512 E0.03815
G1 X111.625 Y135.580 E0.03815
G1 X110.903 Y134.600 E0.03815
G1 X110.246 Y133.576 E0.03815
G1 X109.654 Y132.513 E0.03815
G1 X109.131 Y131.415 E0.03815
G1 X108.679 Y130.285 E0.03815
G1 X108.299 Y129.129 E0.03815
G1 X107.994 Y127.952 E0.03815
G1 X107.763 Y126.757 E0.03815
G1 X107.609 Y125.550 E0.03815
G1 X107.532 Y124.336 E0.03815
G1 X107.532 Y123.119 E0.03815
G1 X107.609 Y121.905 E0.03815
G1 X107.763 Y120.698 E0.03815
G1 X107.994 Y119.504 E0.03815
G1 X108.299 Y118.326 E0.03815
G1 X108.679 Y117.170 E0.03815
G1 X109.131 Y116.041 E0.03815
G1 X109.654 Y114.942 E0.03815
G1 X110.246 Y113.879 E0.03815
G1 X110.903 Y112.856 E0.03815
G1 X111.625 Y111.876 E0.03815
G1 X112.407 Y110.944 E0.03815
G1 X113.246 Y110.063 E0.03815
G1 X113.550 Y109.783 E0.01298
G1 X114.140 Y109.238 E0.02517
G1 X115.084 Y108.471 E0.03815
G1 X116.075 Y107.765 E0.03815
G1 X117.109 Y107.124 E0.03815
G1 X118.181 Y106.549 E0.03815
G1 X119.288 Y106.044 E0.03815
G1 X120.425 Y105.609 E0.03815
G1 X121.586 Y105.248 E0.03815
G1 X122.769 Y104.961 E0.03815
G1 X123.967 Y104.750 E0.03815
G1 X125.176 Y104.615 E0.03815
G1 X126.391 Y104.557 E0.03815
G1 X127.608 Y104.577 E0.03815
G1 X128.821 Y104.673 E0.03815
G1 X130.025 Y104.846 E0.03815
G1 X131.216 Y105.095 E0.03815
G1 X132.388 Y105.420 E0.03815
G1 X133.538 Y105.818 E0.03815
G1 X134.660 Y106.288 E0.03815
G1 X135.750 Y106.828 E0.03815
G1 X136.804 Y107.436 E0.03815
G1 X137.817 Y108.110 E0.03815
G1 X138.785 Y108.847 E0.03815
G1 X139.704 Y109.644 E0.03815
G1 X140.571 Y110.497 E0.03815
G1 X141.383 Y111.404 E0.03815
G1 X142.135 Y112.360 E0.03815
G1 X142.825 Y113.362 E0.03815
G1 X143.237 Y114.051 E0.02517
G1 X143.450 Y114.406 E0.01298
G1 X144.007 Y115.487 E0.03815
G1 X144.495 Y116.602 E0.03815
G1 X144.911 Y117.745 E0.03815
G1 X145.254 Y118.913 E0.03815
G1 X145.522 Y120.099 E0.03815
G1 X145.714 Y121.301 E0.03815
G1 X145.830 Y122.512 E0.03815
G1 X145.868 Y123.728 E0.03815
G1 X145.830 Y124.944 E0.03815
G1 X145.714 Y126.155 E0.03815
G1 X145.522 Y127.356 E0.03815
G1 X145.254 Y128.543 E0.03815
G1 X144.911 Y129.710 E0.03815
G1 X144.636 Y130.465 E0.02517
G1 X144.495 Y130.854 E0.01298
G1 X144.007 Y131.968 E0.03815
G1 X143.450 Y133.050 E0.03815
G1 X142.825 Y134.093 E0.03815
G1 X142.135 Y135.095 E0.03815
G1 X141.383 Y136.052 E0.03815
G1 X140.571 Y136.959 E0.03815
G1 X139.704 Y137.812 E0.03815
G1 X138.785 Y138.609 E0.03815
G1 X137.817 Y139.345 E0.03815
G1 X136.804 Y140.019 E0.03815
G1 X135.750 Y140.628 E0.03815
G1 X134.660 Y141.168 E0.03815
G1 X133.538 Y141.638 E0.03815
G1 X132.388 Y142.036 E0.03815
G1 X131.216 Y142.360 E0.03815
G1 X130.025 Y142.609 E0.03815
G1 X128.821 Y142.782 E0.03815
G1 X127.608 Y142.879 E0.03815
G1 X126.391 Y142.898 E0.03815
G1 X125.176 Y142.840 E0.03815
G1 X123.967 Y142.705 E0.03815
G1 X122.769 Y142.494 E0.03815
G1 X121.586 Y142.207 E0.03815
G1 X120.425 Y141.846 E0.03815
G1 X119.288 Y141.412 E0.03815
G1 X118.181 Y140.906 E0.03815
G1 X117.109 Y140.332 E0.03815
G1 X116.005 Y139.641 E0.04084
G1 X116.224 Y139.333 F10800.000
G1 F1200.000
G1 X115.313 Y138.685 E0.03507
G1 X114.387 Y137.932 E0.03740
G1 X113.511 Y137.123 E0.03740
G1 X112.688 Y136.260 E0.03740
G1 X111.921 Y135.346 E0.03740
G1 X111.214 Y134.386 E0.03740
G1 X110.569 Y133.383 E0.03740
G1 X109.989 Y132.340 E0.03740
G1 X109.477 Y131.263 E0.03740
G1 X109.033 Y130.156 E0.03740
G1 X108.661 Y129.023 E0.03740
G1 X108.362 Y127.869 E0.03740
G1 X108.136 Y126.697 E0.03740
G1 X107.985 Y125.514 E0.03740
G1 X107.909 Y124.324 E0.03740
G1 X107.909 Y123.131 E0.03740
G1 X107.985 Y121.941 E0.03740
G1 X108.136 Y120.758 E0.03740
G1 X108.362 Y119.587 E0.03740
G1 X108.661 Y118.432 E0.03740
G1 X109.033 Y117.299 E0.03740
G1 X109.477 Y116.192 E0.03740
G1 X109.989 Y115.115 E0.03740
G1 X110.569 Y114.073 E0.03740
G1 X111.214 Y113.070 E0.03740
G1 X111.921 Y112.109 E0.03740
G1 X112.688 Y111.195 E0.03740
G1 X113.511 Y110.332 E0.03740
G1 X113.806 Y110.060 E0.01260
G1 X114.387 Y109.523 E0.02479
G1 X115.313 Y108.771 E0.03740
G1 X116.284 Y108.079 E0.03740
G1 X117.298 Y107.450 E0.03740
G1 X118.349 Y106.887 E0.03740
G1 X119.434 Y106.392 E0.03740
G1 X120.548 Y105.966 E0.03740
G1 X121.687 Y105.612 E0.03740
G1 X122.846 Y105.331 E0.03740
G1 X124.021 Y105.124 E0.03740
G1 X125.206 Y104.991 E0.03740
G1 X126.397 Y104.935 E0.03740
G1 X127.590 Y104.954 E0.03740
G1 X128.779 Y105.048 E0.03740
G1 X129.959 Y105.218 E0.03740
G1 X131.127 Y105.462 E0.03740
G1 X132.276 Y105.780 E0.03740
G1 X133.403 Y106.170 E0.03740
G1 X134.503 Y106.631 E0.03740
G1 X135.572 Y107.160 E0.03740
G1 X136.605 Y107.757 E0.03740
G1 X137.598 Y108.417 E0.03740
G1 X138.547 Y109.140 E0.03740
G1 X139.448 Y109.921 E0.03740
G1 X140.298 Y110.757 E0.03740
G1 X141.094 Y111.646 E0.03740
G1 X141.831 Y112.584 E0.03740
G1 X142.507 Y113.566 E0.03740
G1 X142.913 Y114.245 E0.02479
G1 X143.120 Y114.589 E0.01260
G1 X143.666 Y115.650 E0.03740
G1 X144.145 Y116.742 E0.03740
G1 X144.553 Y117.863 E0.03740
G1 X144.889 Y119.007 E0.03740
G1 X145.151 Y120.171 E0.03740
G1 X145.340 Y121.348 E0.03740
G1 X145.453 Y122.536 E0.03740
G1 X145.491 Y123.728 E0.03740
G1 X145.453 Y124.920 E0.03740
G1 X145.340 Y126.107 E0.03740
G1 X145.151 Y127.285 E0.03740
G1 X144.889 Y128.448 E0.03740
G1 X144.553 Y129.593 E0.03740
G1 X144.145 Y130.713 E0.03740
G1 X143.666 Y131.806 E0.03740
G1 X143.120 Y132.866 E0.03740
G1 X142.507 Y133.889 E0.03740
G1 X141.831 Y134.872 E0.03740
G1 X141.094 Y135.809 E0.03740
G1 X140.298 Y136.698 E0.03740
G1 X139.448 Y137.535 E0.03740
G1 X138.547 Y138.316 E0.03740
G1 X137.598 Y139.038 E0.03740
G1 X136.605 Y139.699 E0.03740
G1 X135.572 Y140.295 E0.03740
G1 X134.503 Y140.825 E0.03740
G1 X133.403 Y141.286 E0.03740
G1 X132.276 Y141.676 E0.03740
G1 X131.127 Y141.993 E0.03740
G1 X129.959 Y142.238 E0.03740
G1 X128.779 Y142.407 E0.03740
G1 X127.590 Y142.502 E0.03740
G1 X126.397 Y142.521 E0.03740
G1 X125.206 Y142.464 E0.03740
G1 X124.021 Y142.332 E0.03740
G1 X122.846 Y142.125 E0.03740
G1 X121.687 Y141.844 E0.03740
G1 X120.548 Y141.490 E0.03740
G1 X119.434 Y141.064 E0.03740
G1 X118.349 Y140.568 E0.03740
G1 X117.298 Y140.005 E0.03740
G1 X116.273 Y139.368 E0.03784
G1 X115.865 Y139.511 F10800.000
G1 F8640.000
G1 X115.313 Y138.685 E-0.27214
G1 X114.387 Y137.932 E-0.27540
G1 X113.511 Y137.123 E-0.27539
G1 X112.688 Y136.260 E-0.27539
G1 X112.043 Y135.491 E-0.23168
G1 E-0.07000 F2100.00000
G1 Z0.400 F10800.000
G1 X118.219 Y146.359
G1 Z0.200
G1 E1.40000 F2100.00000
G1 F1200.000
G1 X118.062 Y146.001 E0.01227
G1 X117.573 Y144.191 E0.05876
G1 X117.314 Y143.425 E0.02538
G1 X116.972 Y142.689 E0.02544
G1 X116.752 Y142.322 E0.01340
G1 X116.510 Y141.982 E0.01309
G1 X116.242 Y141.663 E0.01307
G1 X115.950 Y141.367 E0.01304
G1 X115.652 Y141.108 E0.01238
G1 X114.013 Y139.913 E0.06358
G1 X113.060 Y139.119 E0.03891
G1 X112.156 Y138.267 E0.03894
G1 X111.304 Y137.363 E0.03894
G1 X110.509 Y136.409 E0.03894
G1 X109.773 Y135.408 E0.03894
G1 X109.099 Y134.365 E0.03894
G1 X108.488 Y133.284 E0.03894
G1 X107.945 Y132.167 E0.03894
G1 X107.469 Y131.019 E0.03894
G1 X107.063 Y129.841 E0.03907
G1 X106.823 Y129.011 E0.02709
G1 X106.627 Y128.467 E0.01813
G1 X106.346 Y127.932 E0.01895
G1 X106.167 Y127.671 E0.00992
G1 X105.963 Y127.422 E0.01010
G1 X105.525 Y127.006 E0.01892
G1 X105.021 Y126.655 E0.01928
G1 X104.481 Y126.382 E0.01895
G1 X103.916 Y126.176 E0.01886
G1 X103.338 Y126.027 E0.01872
G1 X102.677 Y125.914 E0.02102
G1 X102.012 Y125.847 E0.02096
G1 X101.230 Y125.813 E0.02454
G1 X100.445 Y125.817 E0.02462
G1 X98.899 Y125.907 E0.04855
G1 X97.744 Y126.034 E0.03645
G1 X96.597 Y126.206 E0.03635
G1 X95.458 Y126.424 E0.03635
G1 X94.330 Y126.694 E0.03636
G1 X93.217 Y127.023 E0.03641
G1 X92.122 Y127.416 E0.03649
G1 X91.051 Y127.879 E0.03656
G1 X90.013 Y128.410 E0.03655
G1 X89.011 Y129.003 E0.03652
G1 X88.045 Y129.651 E0.03648
G1 X87.115 Y130.348 E0.03642
G1 X86.218 Y131.083 E0.03636
G1 X85.351 Y131.849 E0.03628
G1 X84.507 Y132.638 E0.03624
G1 X80.622 Y136.484 E0.17139
G1 X79.300 Y137.697 E0.05626
G1 X78.619 Y138.270 E0.02789
G1 X77.915 Y138.818 E0.02798
G1 X77.188 Y139.332 E0.02792
G1 X76.436 Y139.803 E0.02782
G1 X75.658 Y140.224 E0.02772
G1 X74.853 Y140.587 E0.02769
G1 X73.943 Y140.910 E0.03030
G1 X73.007 Y141.145 E0.03025
G1 X72.045 Y141.292 E0.03050
G1 X71.576 Y141.331 E0.01476
G1 X70.603 Y141.345 E0.03052
G1 X70.140 Y141.321 E0.01452
G1 X69.189 Y141.209 E0.03003
G1 X68.252 Y141.014 E0.03000
G1 X67.802 Y140.887 E0.01466
G1 X66.943 Y140.573 E0.02869
G1 X66.160 Y140.186 E0.02739
G1 X63.284 Y138.399 E0.10616
G1 X61.914 Y137.483 E0.05168
G1 X60.732 Y136.624 E0.04580
G1 X59.584 Y135.720 E0.04581
G1 X58.471 Y134.774 E0.04581
G1 X57.394 Y133.785 E0.04582
G1 X56.358 Y132.755 E0.04582
G1 X55.367 Y131.682 E0.04580
G1 X54.426 Y130.566 E0.04577
G1 X53.538 Y129.407 E0.04578
G1 X52.709 Y128.205 E0.04580
G1 X52.323 Y127.597 E0.02256
G1 X51.592 Y126.334 E0.04578
G1 X50.931 Y125.031 E0.04579
G1 X50.632 Y124.375 E0.02260
G1 X50.080 Y123.023 E0.04580
G1 X49.600 Y121.645 E0.04576
G1 X49.194 Y120.245 E0.04571
G1 X48.860 Y118.826 E0.04571
G1 X48.593 Y117.391 E0.04575
G1 X48.388 Y115.945 E0.04579
G1 X48.240 Y114.491 E0.04582
G1 X48.146 Y113.032 E0.04583
G1 X48.099 Y111.571 E0.04585
G1 X48.098 Y110.107 E0.04589
G1 X48.139 Y108.642 E0.04594
G1 X48.217 Y107.178 E0.04598
G1 X48.330 Y105.715 E0.04602
G1 X48.474 Y104.254 E0.04603
G1 X48.646 Y102.796 E0.04603
G1 X48.846 Y101.341 E0.04604
G1 X49.073 Y99.890 E0.04604
G1 X49.327 Y98.444 E0.04605
G1 X49.607 Y97.002 E0.04606
G1 X49.912 Y95.565 E0.04604
G1 X50.301 Y93.888 E0.05398
G1 X50.723 Y92.220 E0.05396
G1 X51.178 Y90.561 E0.05395
G1 X51.665 Y88.911 E0.05393
G1 X52.185 Y87.272 E0.05391
G1 X52.738 Y85.644 E0.05390
G1 X53.322 Y84.028 E0.05389
G1 X53.939 Y82.423 E0.05389
